archdroid-icon-theme/Archdroid-Blue/actions/scalable/document-revert-rtl.svg

<?xml version="1.0" encoding="UTF-8" standalone="no"?>
<svg
   xmlns:dc="http://purl.org/dc/elements/1.1/"
   xmlns:cc="http://creativecommons.org/ns#"
   xmlns:rdf="http://www.w3.org/1999/02/22-rdf-syntax-ns#"
   xmlns:svg="http://www.w3.org/2000/svg"
   xmlns="http://www.w3.org/2000/svg"
   xmlns:sodipodi="http://sodipodi.sourceforge.net/DTD/sodipodi-0.dtd"
   xmlns:inkscape="http://www.inkscape.org/namespaces/inkscape"
   fill="#2196F3"
   width="48"
   height="48"
   viewBox="0 0 48 48"
   id="svg2"
   version="1.1"
   inkscape:version="0.91 r13725"
   sodipodi:docname="document-revert.svg">
  <metadata
     id="metadata10">
    <rdf:RDF>
      <cc:Work
         rdf:about="">
        <dc:format>image/svg+xml</dc:format>
        <dc:type
           rdf:resource="http://purl.org/dc/dcmitype/StillImage" />
        <dc:title />
      </cc:Work>
    </rdf:RDF>
  </metadata>
  <defs
     id="defs8" />
  <sodipodi:namedview
     pagecolor="#ffffff"
     bordercolor="#666666"
     borderopacity="1"
     objecttolerance="10"
     gridtolerance="10"
     guidetolerance="10"
     inkscape:pageopacity="0"
     inkscape:pageshadow="2"
     inkscape:window-width="1366"
     inkscape:window-height="713"
     id="namedview6"
     showgrid="false"
     inkscape:snap-bbox="true"
     inkscape:bbox-paths="true"
     inkscape:bbox-nodes="true"
     inkscape:snap-bbox-midpoints="true"
     inkscape:zoom="5.5120444203125"
     inkscape:cx="-7.597125837325933"
     inkscape:cy="8.808298296935963"
     inkscape:window-x="0"
     inkscape:window-y="30"
     inkscape:window-maximized="1"
     inkscape:current-layer="svg2" />
  <path
     d="M 12 4 C 9.789999999999999 4 8.019531349999999 5.790000000000001 8.01953125 8 L 8 40 C 8 42.21 9.77046835 44 11.98046875 44 L 36 44 C 38.21 44 40 42.21 40 40 L 40 16 L 28 4 L 12 4 z M 26 7 L 37 18 L 26 18 L 26 7 z M 34.4609375 27 L 34.4609375 36 L 25.4609375 36 L 29.07421875 32.384765625 C 27.68921875 31.219765625 25.91593750000001 30.5 23.9609375 30.5 C 20.4159375 30.5 17.41523437499999 32.80499999999999 16.365234375 36 L 14 35.220703125 C 15.375 31.030703125 19.3109375 28 23.9609375 28 C 26.6059375 28 29.01437499999999 28.98460937499999 30.859375 30.599609375 L 34.4609375 27 z "
     id="path4165" />
</svg>

<svg xmlns="http://www.w3.org/2000/svg" fill="#2196F3" viewBox="0 0 48 48"><path d="m12 4c-2.21 0-3.98 1.79-3.98 4l-.02 32c0 2.21 1.77 4 3.98 4h24.02c2.21 0 4-1.79 4-4v-24l-12-12h-16m14 3l11 11h-11v-11m8.461 20v9h-9l3.613-3.615c-1.385-1.165-3.158-1.885-5.113-1.885-3.545 0-6.546 2.305-7.596 5.5l-2.365-.779c1.375-4.19 5.311-7.221 9.961-7.221 2.645 0 5.05.985 6.898 2.6l3.602-3.6"/></svg>
